storage/app/icons/phosphoricons/duotone/circles-four-duotone.svg

<svg xmlns="http://www.w3.org/2000/svg" fill="currentColor" viewBox="0 0 256 256"><path d="M112 80a32 32 0 1 1-32-32 32 32 0 0 1 32 32m64 32a32 32 0 1 0-32-32 32 32 0 0 0 32 32m-96 32a32 32 0 1 0 32 32 32 32 0 0 0-32-32m96 0a32 32 0 1 0 32 32 32 32 0 0 0-32-32" opacity=".2"/><path d="M80 40a40 40 0 1 0 40 40 40 40 0 0 0-40-40m0 64a24 24 0 1 1 24-24 24 24 0 0 1-24 24m96 16a40 40 0 1 0-40-40 40 40 0 0 0 40 40m0-64a24 24 0 1 1-24 24 24 24 0 0 1 24-24m-96 80a40 40 0 1 0 40 40 40 40 0 0 0-40-40m0 64a24 24 0 1 1 24-24 24 24 0 0 1-24 24m96-64a40 40 0 1 0 40 40 40 40 0 0 0-40-40m0 64a24 24 0 1 1 24-24 24 24 0 0 1-24 24"/></svg>

<svg xmlns="http://www.w3.org/2000/svg" viewBox="0 0 256 256" fill="currentColor"><path d="M112,80A32,32,0,1,1,80,48,32,32,0,0,1,112,80Zm64,32a32,32,0,1,0-32-32A32,32,0,0,0,176,112ZM80,144a32,32,0,1,0,32,32A32,32,0,0,0,80,144Zm96,0a32,32,0,1,0,32,32A32,32,0,0,0,176,144Z" opacity="0.2"/><path d="M80,40a40,40,0,1,0,40,40A40,40,0,0,0,80,40Zm0,64a24,24,0,1,1,24-24A24,24,0,0,1,80,104Zm96,16a40,40,0,1,0-40-40A40,40,0,0,0,176,120Zm0-64a24,24,0,1,1-24,24A24,24,0,0,1,176,56ZM80,136a40,40,0,1,0,40,40A40,40,0,0,0,80,136Zm0,64a24,24,0,1,1,24-24A24,24,0,0,1,80,200Zm96-64a40,40,0,1,0,40,40A40,40,0,0,0,176,136Zm0,64a24,24,0,1,1,24-24A24,24,0,0,1,176,200Z"/></svg>
